X: 5146
T: Brig O' Perth, The
R: strathspey
M: 4/4
K: Amixolydian
|:"A"A/B/c/d/ eA "D"dAfA|"A"cAec ae ~c2|
"A"A/B/c/d/ ed ceA=c|"G"Bd=GB gd ~B2:|
|:"A"Aaea caea|Aaef eA ~c2|
[1 Aaea caAa|"G"=gbeg BG ~B2:|
[2 Aa^ga eaca|"G"B=gdg BG ~B2||

